assets/images/icons/ico-6.svg

<svg width="49" height="49" viewBox="0 0 49 49" fill="none" xmlns="http://www.w3.org/2000/svg">
<path d="M10.6731 3.39484C11.6842 2.36525 13.1459 1.6074 14.5361 1.441C15.5495 1.36705 15.5745 1.49969 16.5809 1.65222C16.6907 2.90021 16.7439 4.39554 16.537 5.63776C16.3556 6.68353 15.9731 7.72468 15.2821 8.54512C14.3542 9.58627 12.8505 10.6701 11.4765 10.7256C12.4692 10.09 14.5326 8.8109 15.2629 7.87606C15.6419 7.45081 15.3983 7.15158 14.794 7.13309C14.3075 7.03256 14.1912 7.38038 13.9174 7.68314C13.1928 8.43771 12.1949 9.21136 11.2566 9.67704C10.8938 9.83188 10.2329 9.90815 9.86079 9.67704C9.84346 9.43091 10.0456 8.76698 10.1461 8.53356C10.6708 7.27864 11.5501 6.19242 12.5878 5.32345C13.0165 4.97101 12.6564 4.61803 12.1295 4.45163C11.6788 4.26906 11.5767 4.69589 11.2566 4.95011C10.5263 5.64228 9.74949 6.427 9.2422 7.29713C9.23874 6.02949 9.80295 4.31697 10.6731 3.39484Z" fill="#48FDBC"/>
<path d="M45.3076 8.18835C45.3207 6.74536 44.6597 5.23109 43.7944 4.13046C43.1301 3.36157 43.4748 2.67536 42.6552 2.07153C41.6951 2.87637 40.6002 3.89614 39.8681 4.92078C39.2569 5.78854 38.7911 6.7952 38.6996 7.86396C38.6195 9.25629 38.6236 11.7931 39.5559 12.8038C39.3034 11.6525 38.7488 9.28898 38.8934 8.11154C38.9261 7.54284 39.3099 7.5035 39.7503 7.91776C40.1654 8.19067 40.0017 8.51884 39.9813 8.92657C39.96 9.97246 40.1186 11.2251 40.4528 12.2179C40.5999 12.584 41.0133 13.1052 41.4398 13.2049C41.6261 13.0431 41.9526 12.4307 42.0466 12.1946C42.563 10.9362 42.7092 9.54636 42.5899 8.19815C42.536 7.6458 43.0403 7.65086 43.5305 7.9058C43.9783 8.09537 43.7487 8.46936 43.7952 8.87546C43.8222 9.8813 43.8166 10.9855 43.56 11.9595C44.4589 11.0656 45.2708 9.45566 45.3076 8.18835Z" fill="#48FDBC"/>
<path d="M32.8035 21.7646C31.7924 20.735 30.2542 20.1317 28.8641 19.9653C27.8507 19.8913 27.9021 19.8695 26.8956 20.022C26.7858 21.27 26.7327 22.7653 26.9395 24.0076C27.121 25.0533 27.5034 26.0945 28.1945 26.9149C29.1224 27.9561 31.6261 29.0399 33 29.0954C32.0074 28.4598 28.944 27.1807 28.2137 26.2458C27.8346 25.8206 28.0782 25.5214 28.6826 25.5029C29.1691 25.4024 29.2853 25.7502 29.5592 26.0529C30.2837 26.8075 31.2816 27.5811 32.2199 28.0468C32.5828 28.2017 33.2437 28.2779 33.6158 28.0468C33.6331 27.8007 33.431 27.1368 33.3304 26.9034C32.8058 25.6484 31.9264 24.5622 30.8887 23.6932C30.46 23.3408 30.8202 22.9878 31.3471 22.8214C31.7978 22.6388 31.8998 23.0657 32.2199 23.3199C32.9502 24.0121 33.7271 24.7968 34.2344 25.6669C34.2378 24.3993 33.6736 22.6868 32.8035 21.7646Z" fill="#48FDBC"/>
<path d="M12.3965 0.585121C14.4713 -0.0260483 16.6928 -0.0951684 18.8137 0.315916C19.2285 0.352295 19.4758 0.753677 19.511 1.13687C19.6941 2.41378 19.779 3.71615 19.6383 5.00155C19.4989 6.79868 18.9289 8.63582 17.6945 9.98912C16.6443 11.0878 15.2049 11.7984 13.7013 12.0021C12.1697 12.2398 10.466 11.9548 9.28363 10.8938C8.47237 10.2013 7.96186 9.20091 7.76905 8.16168C7.438 6.10505 8.08069 3.91017 9.49099 2.37255C10.2707 1.52006 11.3112 0.953763 12.3965 0.585121ZM10.7424 3.3754C9.82932 4.34308 9.30182 5.67092 9.30546 7.00119C9.83781 6.08807 10.5242 5.26469 11.2905 4.53832C11.6264 4.27154 12.0109 3.8556 12.4838 4.0472C13.0367 4.22182 13.2017 5.02944 12.7518 5.39929C11.6628 6.3112 10.74 7.45108 10.1895 8.768C10.084 9.01295 10.1046 9.28337 10.1228 9.54166C10.5132 9.78419 10.974 9.59381 11.3548 9.43131C12.3395 8.94262 13.2235 8.26233 13.9838 7.47048C14.2712 7.15277 14.5416 6.65073 15.0521 6.75623C15.6864 6.77564 15.9568 7.63176 15.559 8.07801C14.7926 9.05903 13.7886 9.82663 12.7469 10.4936C14.1888 10.4354 15.6548 9.87271 16.6286 8.78013C17.3537 7.91915 17.7551 6.82657 17.9455 5.72913C18.1626 4.42554 18.1068 3.10256 17.9916 1.79291C16.9354 1.63284 15.8598 1.6389 14.7963 1.71651C13.3375 1.89113 11.8035 2.29494 10.7424 3.3754Z" fill="black"/>
<path d="M40.4601 0.48125C40.7936 0.202343 41.275 -0.125069 41.6994 0.182941C43.0685 1.12031 44.2836 2.28929 45.267 3.62683C46.3159 5.06987 47.0605 6.84517 46.8665 8.65928C46.6397 10.5425 45.666 12.359 44.1308 13.4953C43.3341 14.0895 42.353 14.429 41.3599 14.4666C39.7604 14.4799 38.2568 13.6093 37.2854 12.3712C35.8909 10.6553 35.2518 8.21666 36.0328 6.09576C36.2304 5.57675 36.3553 4.9195 36.8828 4.63211C37.4103 4.39564 37.9597 4.84674 38.0057 5.37909C37.7935 6.06545 37.4322 6.70208 37.3254 7.42117C37.1302 8.98305 37.7705 10.568 38.8388 11.6945C38.5442 10.5425 38.429 9.34199 38.5284 8.15603C38.5466 7.85045 38.6751 7.53395 38.9528 7.37509C39.4173 7.04404 40.2067 7.44058 40.123 8.03719C40.0527 9.35654 40.1206 10.7159 40.5935 11.9625C40.7136 12.2899 40.8542 12.6513 41.1683 12.8368C41.4775 12.9447 41.6909 12.6173 41.8134 12.3845C42.3858 11.15 42.5398 9.7458 42.4561 8.39977C42.3312 7.99233 42.4901 7.50606 42.8987 7.32901C43.3971 7.07679 44.0047 7.49393 44.0423 8.02749C44.1696 9.25468 44.0447 10.5013 43.7488 11.6969C44.5103 10.8881 45.0487 9.85858 45.2318 8.76114C45.4538 7.56063 45.0596 6.34678 44.463 5.31361C43.6688 3.9785 42.5628 2.84953 41.3393 1.90246C40.927 2.05162 40.6226 2.44936 40.2734 2.7222C39.8647 3.05447 39.5373 3.67898 38.9237 3.57348C38.3283 3.50193 38.0591 2.69431 38.4641 2.26625C39.0716 1.61022 39.7568 1.03057 40.4601 0.48125Z" fill="black"/>
<path d="M25.6442 1.69868C26.5683 1.53376 27.5408 1.883 28.1799 2.56086C29.2555 3.67285 29.9673 5.15833 30.057 6.71172C30.2025 8.29057 29.783 9.91793 28.8529 11.207C28.3496 11.9333 27.6887 12.6233 26.7999 12.838C25.734 13.1411 24.5492 12.6621 23.8883 11.7963C23.1038 10.7607 23.202 9.1758 24.0824 8.22631C24.3419 7.94982 24.5747 7.59937 24.5298 7.20163C24.5141 6.88028 24.3079 6.61956 24.1066 6.38673C23.3827 5.61065 23.1547 4.40892 23.5427 3.42062C23.8641 2.51842 24.7251 1.88542 25.6442 1.69868ZM25.1749 3.74561C24.7675 4.22824 24.9215 4.95582 25.3447 5.37539C26.1996 6.21575 26.3597 7.63454 25.7619 8.66407C25.5327 9.04362 25.1604 9.3298 25.0015 9.7518C24.85 10.1532 24.9567 10.6201 25.2501 10.9293C25.5836 11.3464 26.2081 11.3743 26.6713 11.1948C27.3698 10.694 27.8246 9.924 28.1641 9.14912C28.8771 7.2283 28.3957 4.90004 26.8605 3.514C26.3621 3.10534 25.5375 3.20356 25.1749 3.74561Z" fill="black"/>
<path d="M2.5282 11.7963C3.21092 10.6055 4.82615 10.1483 6.06062 10.7134C7.06589 11.1815 7.73284 12.2753 7.71344 13.3812C7.6904 13.9863 8.27247 14.4641 8.84968 14.4665C9.44509 14.4993 10.0575 14.6339 10.534 15.0134C11.4083 15.6149 11.857 16.7281 11.6776 17.771C11.4302 18.9181 10.471 19.8955 9.28138 20.0228C7.57278 20.1514 5.82779 19.5572 4.52784 18.4476C4.03187 18.0317 4.3314 17.121 4.97409 17.0688C5.33789 16.9973 5.60224 17.2883 5.87508 17.4714C6.73363 18.1032 7.79833 18.4319 8.85939 18.461C9.62335 18.4986 10.3 17.6934 10.055 16.9476C9.9071 16.3122 9.20256 16.0248 8.60594 16.0345C7.54974 15.9835 6.60509 15.2281 6.25949 14.2398C6.07153 13.836 6.15278 13.3788 6.04607 12.958C5.95269 12.5494 5.60709 12.2341 5.21662 12.1043C4.71216 11.9394 4.14465 12.2207 3.87059 12.6549C3.63656 13.0211 3.72023 13.4746 3.73842 13.8845C3.80269 14.3319 3.94457 14.76 4.04764 15.1978C4.09372 15.7495 3.47285 16.2018 2.96112 15.9751C2.50638 15.8392 2.45666 15.313 2.32691 14.931C2.06376 13.9099 1.9231 12.7276 2.5282 11.7963Z" fill="black"/>
<path d="M31.5533 11.5805C32.1306 11.4447 32.7248 11.5781 33.2911 11.7018C34.5316 11.9552 35.6557 12.7325 36.3239 13.8081C36.9387 14.7443 37.2115 15.9715 36.8271 17.0495C36.5324 17.9723 35.6678 18.6732 34.7098 18.7921C32.9867 19.0589 31.2732 18.0184 30.4207 16.5548C29.9187 15.712 29.7053 14.7225 29.6992 13.7499C29.7332 12.7131 30.5396 11.7806 31.5533 11.5805ZM31.9608 13.1145C31.5667 13.1812 31.2368 13.5789 31.2841 13.9828C31.3727 14.8304 31.6164 15.712 32.2361 16.3316C32.8072 16.9101 33.6294 17.3357 34.4576 17.2241C35.0215 17.1441 35.4241 16.613 35.4277 16.0576C35.4168 15.4779 35.1658 14.925 34.836 14.4569C34.1872 13.5547 33.0376 13.14 31.9608 13.1145Z" fill="black"/>
<path d="M19.3632 12.3956C19.9477 12.3265 20.5819 12.2586 21.1276 12.5314C21.9485 12.9146 22.5549 13.7902 22.5112 14.7118C22.4954 15.7437 22.1717 16.7781 21.6029 17.6391C20.8826 18.6977 19.7136 19.4447 18.4452 19.6302C17.3138 19.7903 16.0612 19.264 15.5325 18.2199C15.1578 17.5833 15.1408 16.8145 15.2499 16.1039C15.5397 14.816 16.3922 13.6713 17.5406 13.0189C18.1142 12.7242 18.7205 12.4841 19.3632 12.3956ZM17.5442 15.038C17.1065 15.5618 16.739 16.2118 16.7973 16.9188C16.7706 17.4863 17.2605 18.0029 17.8195 18.0453C18.5568 18.1302 19.2541 17.7531 19.7961 17.2898C20.5989 16.5901 20.9275 15.4927 20.9093 14.4547C20.7505 14.2255 20.5661 13.9539 20.2593 13.9381C19.2613 13.9296 18.2173 14.274 17.5442 15.038Z" fill="black"/>
<path d="M43.6227 16.9003C45.1385 16.5923 46.7101 17.7844 46.875 19.3099C47.0132 21.3107 46.145 23.3407 44.6619 24.6782C43.4153 25.8314 41.714 26.4729 40.0187 26.4559C38.5733 26.4365 37.2733 25.1475 37.2952 23.6923C37.2297 22.1644 38.6448 20.8329 40.1497 20.856C40.5608 20.8863 40.9379 20.6292 41.1489 20.2897C41.3539 19.9732 41.2629 19.5827 41.3272 19.231C41.5418 18.096 42.4561 17.0762 43.6227 16.9003ZM43.1522 18.94C42.769 19.4214 42.9861 20.0799 42.7484 20.6147C42.4646 21.4259 41.7904 22.0916 40.9622 22.3354C40.4589 22.5258 39.8599 22.3718 39.4064 22.6992C39.005 22.9635 38.8013 23.5007 38.9419 23.9627C39.0377 24.3775 39.3918 24.7024 39.7896 24.8249C40.6748 24.9426 41.5612 24.6928 42.3616 24.329C43.8846 23.5977 45.0015 22.0807 45.2343 20.4061C45.3034 19.9101 45.3798 19.3329 45.0366 18.9157C44.5916 18.3264 43.5754 18.3228 43.1522 18.94Z" fill="black"/>
<path d="M24.7136 18.7189C26.6114 18.446 28.5735 18.4085 30.4506 18.8523C31.9979 19.25 33.5089 20.054 34.439 21.3915C35.0526 22.2525 35.4818 23.2493 35.6662 24.2922C35.9305 25.865 35.6989 27.5978 34.6512 28.8541C35.6031 28.8517 36.5562 28.8541 37.5094 28.8541C37.935 29.0154 38.2018 29.5005 38.0296 29.9406C37.9229 30.2693 37.5724 30.4778 37.2329 30.456C25.5322 30.4609 13.8314 30.4548 2.13068 30.4584C2.30894 32.4314 3.02076 34.3668 4.23704 35.9371C5.59398 37.7221 7.53662 39.0548 9.69633 39.6599C10.6519 39.8952 11.6305 40.0662 12.6176 40.0553C20.5409 40.0553 28.4643 40.0553 36.3877 40.0553C38.5753 40.054 40.7702 39.3931 42.5418 38.0981C45.0144 36.3458 46.6248 33.4755 46.8697 30.4584C44.7476 30.4536 42.6255 30.4633 40.5046 30.4548C40.1153 30.4657 39.7479 30.1407 39.6946 29.7587C39.6157 29.3537 39.9225 29.0396 40.2463 28.8602C42.8062 28.8468 45.3661 28.8529 47.9259 28.8565C48.2061 29.0166 48.491 29.2676 48.4886 29.6193C48.508 33.0814 46.9389 36.5156 44.2905 38.7492C42.1514 40.6058 39.3368 41.6487 36.5053 41.6365C36.4993 43.5004 36.5126 45.3654 36.4993 47.2292C36.5005 47.7215 36.0227 48.112 35.5401 48.0502C28.1393 48.0465 20.7386 48.0562 13.3367 48.0453C12.8916 48.0647 12.4987 47.6646 12.4999 47.2244C12.489 46.2106 12.4999 45.1968 12.4951 44.1831C12.4551 43.7502 12.7655 43.2821 13.2166 43.2421C13.6798 43.1729 14.12 43.5913 14.0982 44.0533C14.1055 44.8512 14.0958 45.6491 14.1006 46.4458C21.0333 46.4458 27.9671 46.4458 34.8998 46.4471C34.901 44.844 34.8986 43.2421 34.901 41.639C27.47 41.6353 20.0389 41.6402 12.6067 41.6365C10.7974 41.6402 8.97966 41.2703 7.3523 40.47C4.73664 39.2379 2.60846 37.0127 1.47586 34.3534C0.842863 32.8631 0.506962 31.2394 0.511813 29.6193C0.50575 29.2652 0.793145 29.019 1.07205 28.8565C2.24589 28.8493 3.41972 28.8541 4.59355 28.8529C3.91326 27.6087 3.82474 26.0881 4.34375 24.7687C4.81304 23.8229 5.3854 22.7412 6.45737 22.3895C7.22619 22.107 8.12111 22.3168 8.74077 22.8334C9.62721 23.698 10.2323 24.8645 10.379 26.0978C10.493 27.0509 10.2202 27.9968 9.82002 28.8529C11.0569 28.8529 12.2938 28.8529 13.5307 28.8529C13.3148 27.958 13.3403 27.0242 13.424 26.1148C13.6677 24.6948 14.371 23.3524 15.4176 22.3592C16.0906 21.765 17.0643 21.4522 17.9471 21.6971C18.7984 21.9118 19.5623 22.5241 19.8776 23.3548C20.2123 24.1151 20.1299 25.0101 19.7467 25.7364C19.532 26.2639 18.916 26.5768 18.9087 27.194C18.8372 27.8949 19.5696 28.2369 19.7649 28.842C22.4339 28.8675 25.1041 28.8456 27.7743 28.8529C28.7068 28.8396 29.6406 28.8808 30.5731 28.8286C29.5205 28.1556 28.491 27.3735 27.7743 26.3355C27.4615 25.7922 28.0144 25.0925 28.6086 25.1956C29.0003 25.2514 29.2089 25.62 29.455 25.8856C30.1268 26.5974 30.9066 27.2098 31.7566 27.6948C32.1835 27.8937 32.6334 28.1568 33.1233 28.0938C33.4907 27.9204 33.293 27.4014 33.2227 27.0994C32.654 25.8237 31.7469 24.7069 30.6786 23.8156C30.3948 23.6034 30.4397 23.1996 30.5076 22.8952C30.6556 22.6054 30.9878 22.438 31.3092 22.4623C31.639 22.512 31.8985 22.7424 32.1386 22.9583C32.9317 23.6943 33.6217 24.5468 34.1625 25.4854C34.1322 23.835 33.3876 22.1252 31.9688 21.2109C30.7295 20.4008 29.2246 20.1765 27.7731 20.1171C26.9958 20.0904 26.2197 20.1559 25.4497 20.2492C25.3672 21.1915 25.3648 22.1385 25.3915 23.0832C25.4121 24.0666 25.674 25.0307 26.0306 25.9414C26.1639 26.2821 26.4635 26.578 26.415 26.9697C26.438 27.3674 26.0681 27.6136 25.7432 27.7421C24.9489 27.7494 24.7233 26.8921 24.4529 26.3088C23.6489 24.1297 23.5653 21.7299 23.9812 19.4586C24.0285 19.0815 24.328 18.7577 24.7136 18.7189ZM16.555 23.4979C15.0914 24.8136 14.5954 27.0097 15.2078 28.859C16.0797 28.8444 16.9515 28.859 17.8234 28.8505C17.2317 28.038 17.1322 26.8957 17.5967 26.002C17.7883 25.6394 18.0999 25.3629 18.323 25.0222C18.5959 24.5856 18.5474 23.9599 18.163 23.6034C17.7761 23.1426 16.9988 23.1038 16.555 23.4979ZM6.82602 23.9635C5.85106 24.8027 5.31143 26.2542 5.75405 27.5069C5.93473 28.0489 6.26093 28.5982 6.80176 28.8396C7.16192 28.8493 7.5924 28.9451 7.88344 28.671C8.66074 28.0271 8.92752 26.92 8.75411 25.9535C8.57585 25.2599 8.22783 24.6002 7.72458 24.0872C7.50388 23.8399 7.10856 23.8132 6.82602 23.9635Z" fill="black"/>
<path d="M5.00351 32.0813C5.35881 32.0352 5.71775 32.0643 6.07426 32.0583C18.4808 32.057 30.8873 32.0607 43.295 32.057C43.6406 32.0728 44.0468 31.9916 44.333 32.2402C44.7162 32.5166 44.7125 33.186 44.3293 33.4625C44.1511 33.6298 43.8879 33.631 43.66 33.6407C30.8472 33.6383 18.0345 33.6456 5.22178 33.6371C4.81191 33.6638 4.36808 33.3352 4.39597 32.901C4.32928 32.5154 4.63244 32.1492 5.00351 32.0813Z" fill="black"/>
</svg>

<svg xmlns="http://www.w3.org/2000/svg" width="49" height="49" fill="none"><path fill="#48FDBC" d="M10.673 3.395c1.011-1.03 2.473-1.788 3.863-1.954 1.014-.074 1.039.059 2.045.211.11 1.248.163 2.744-.044 3.986-.181 1.046-.564 2.087-1.255 2.907-.928 1.041-2.431 2.125-3.806 2.18.993-.635 3.057-1.914 3.787-2.849.379-.425.135-.724-.469-.743-.487-.1-.603.247-.877.55-.724.755-1.722 1.528-2.66 1.994-.363.155-1.024.231-1.396 0-.018-.246.185-.91.285-1.143.525-1.255 1.404-2.342 2.442-3.21.429-.353.068-.706-.458-.872-.451-.183-.553.244-.873.498-.73.692-1.508 1.477-2.015 2.347-.003-1.268.56-2.98 1.431-3.902M45.308 8.188c.013-1.443-.648-2.957-1.514-4.058-.664-.768-.32-1.455-1.139-2.058-.96.804-2.055 1.824-2.787 2.849-.611.868-1.077 1.874-1.168 2.943-.08 1.392-.076 3.93.856 4.94-.253-1.152-.807-3.515-.663-4.692.033-.57.417-.609.857-.194.415.273.252.6.231 1.009-.021 1.045.138 2.298.472 3.29.147.367.56.888.987.988.186-.162.513-.774.607-1.01.516-1.259.662-2.649.543-3.997-.054-.552.45-.547.94-.292.448.19.219.563.265.97.027 1.005.022 2.11-.235 3.084.899-.894 1.71-2.504 1.748-3.772M32.804 21.765c-1.012-1.03-2.55-1.633-3.94-1.8-1.013-.074-.962-.096-1.968.057-.11 1.248-.163 2.743.043 3.986.182 1.045.564 2.087 1.256 2.907.927 1.041 3.431 2.125 4.805 2.18-.993-.635-4.056-1.914-4.786-2.85-.38-.424-.136-.724.469-.742.486-.1.602.247.876.55.725.755 1.723 1.528 2.66 1.994.364.155 1.025.23 1.397 0 .017-.246-.185-.91-.286-1.144-.524-1.255-1.404-2.34-2.441-3.21-.429-.352-.069-.705.458-.872.45-.182.553.245.873.499.73.692 1.507 1.477 2.014 2.347.004-1.268-.56-2.98-1.43-3.902"/><path fill="#000" d="M12.397.585c2.074-.611 4.296-.68 6.417-.27.415.037.662.439.697.822.183 1.277.268 2.58.127 3.865-.14 1.797-.71 3.634-1.944 4.987-1.05 1.099-2.49 1.81-3.993 2.013-1.531.238-3.235-.047-4.417-1.108C8.472 10.2 7.962 9.2 7.769 8.162c-.331-2.057.312-4.252 1.722-5.79.78-.852 1.82-1.418 2.906-1.787m-1.655 2.79a5.33 5.33 0 0 0-1.437 3.626c.533-.913 1.22-1.736 1.986-2.463.335-.266.72-.682 1.193-.49.553.174.718.981.268 1.351-1.09.912-2.012 2.052-2.562 3.369-.106.245-.085.515-.067.774.39.242.851.052 1.232-.11a9.6 9.6 0 0 0 2.629-1.962c.287-.317.558-.82 1.068-.714.634.02.905.876.507 1.322-.766.981-1.77 1.749-2.812 2.416 1.442-.059 2.908-.621 3.882-1.714.725-.86 1.126-1.953 1.316-3.05.218-1.304.162-2.627.047-3.937-1.057-.16-2.132-.154-3.196-.076-1.458.174-2.992.578-4.054 1.658M40.46.481c.334-.279.815-.606 1.24-.298a14.9 14.9 0 0 1 3.567 3.444c1.049 1.443 1.793 3.218 1.6 5.032-.227 1.883-1.201 3.7-2.736 4.836a5 5 0 0 1-2.771.972c-1.6.013-3.103-.858-4.075-2.096-1.394-1.716-2.033-4.154-1.252-6.275.197-.52.322-1.176.85-1.464.527-.236 1.077.215 1.123.747-.212.686-.574 1.323-.68 2.042-.196 1.562.444 3.147 1.513 4.273a10.7 10.7 0 0 1-.31-3.538c.018-.306.146-.622.424-.78.464-.332 1.254.065 1.17.661-.07 1.32-.002 2.679.47 3.925.12.328.261.69.575.875.31.108.523-.22.645-.453.573-1.234.727-2.638.643-3.984-.125-.408.034-.894.443-1.071.498-.252 1.106.165 1.143.698.128 1.228.003 2.474-.293 3.67.761-.809 1.3-1.838 1.483-2.936.222-1.2-.172-2.414-.769-3.447-.794-1.336-1.9-2.464-3.124-3.412-.412.15-.716.547-1.066.82-.408.332-.736.957-1.35.851-.595-.071-.864-.879-.459-1.307.608-.656 1.293-1.235 1.996-1.785M25.644 1.699c.924-.165 1.897.184 2.536.862 1.076 1.112 1.787 2.597 1.877 4.15.146 1.58-.274 3.207-1.204 4.496-.503.726-1.164 1.416-2.053 1.631-1.066.303-2.25-.176-2.912-1.042-.784-1.035-.686-2.62.194-3.57.26-.276.493-.627.448-1.024-.016-.322-.222-.582-.423-.815a2.9 2.9 0 0 1-.564-2.966c.321-.903 1.182-1.536 2.101-1.722m-.47 2.047c-.407.482-.252 1.21.17 1.63.856.84 1.016 2.259.418 3.288-.23.38-.602.666-.76 1.088-.152.401-.045.868.248 1.177.334.417.958.445 1.421.266.699-.501 1.154-1.271 1.493-2.046.713-1.92.232-4.249-1.304-5.635-.498-.409-1.322-.31-1.685.232M2.528 11.796c.683-1.19 2.298-1.648 3.533-1.083 1.005.469 1.672 1.562 1.652 2.668-.023.605.56 1.083 1.137 1.085.595.033 1.207.168 1.684.547.874.602 1.323 1.715 1.144 2.758-.248 1.147-1.207 2.124-2.397 2.252-1.708.128-3.453-.466-4.753-1.575-.496-.416-.197-1.327.446-1.38.364-.07.628.22.901.403.859.632 1.923.96 2.984.99.764.038 1.441-.768 1.196-1.513-.148-.636-.852-.923-1.45-.913-1.055-.052-2-.807-2.346-1.795-.187-.404-.106-.861-.213-1.282-.093-.409-.439-.724-.83-.854-.504-.165-1.071.117-1.345.55-.234.367-.15.82-.133 1.23.065.448.207.876.31 1.314.046.551-.575 1.004-1.087.777-.455-.136-.504-.662-.634-1.044-.263-1.021-.404-2.203.201-3.135M31.553 11.58c.578-.135 1.172-.002 1.738.122a4.72 4.72 0 0 1 3.033 2.106c.615.936.888 2.164.503 3.241-.295.923-1.16 1.624-2.117 1.743-1.723.267-3.437-.774-4.29-2.237-.501-.843-.715-1.832-.72-2.805.033-1.037.84-1.97 1.853-2.17m.408 1.534c-.394.067-.724.465-.677.869.089.847.332 1.729.952 2.349.571.578 1.393 1.004 2.222.892.564-.08.966-.611.97-1.166-.011-.58-.262-1.133-.592-1.601-.649-.902-1.798-1.317-2.875-1.343M19.363 12.396c.585-.07 1.219-.137 1.765.135.82.384 1.427 1.26 1.383 2.18a5.5 5.5 0 0 1-.908 2.928 4.7 4.7 0 0 1-3.158 1.991c-1.131.16-2.384-.366-2.912-1.41-.375-.637-.392-1.405-.283-2.116a4.8 4.8 0 0 1 2.29-3.085c.574-.295 1.18-.535 1.823-.623m-1.819 2.642c-.437.524-.805 1.174-.747 1.88-.026.568.463 1.085 1.023 1.127.737.085 1.434-.292 1.976-.755.803-.7 1.131-1.797 1.113-2.835-.159-.23-.343-.501-.65-.517-.998-.008-2.042.336-2.715 1.1M43.623 16.9c1.516-.308 3.087.884 3.252 2.41.138 2-.73 4.03-2.213 5.368a6.8 6.8 0 0 1-4.643 1.778c-1.446-.02-2.746-1.308-2.724-2.764-.065-1.528 1.35-2.86 2.855-2.836.41.03.788-.227.999-.566.205-.317.114-.707.178-1.059.215-1.135 1.13-2.155 2.296-2.33m-.47 2.04c-.384.481-.167 1.14-.405 1.675-.283.81-.958 1.477-1.786 1.72-.503.19-1.102.037-1.556.364a1.155 1.155 0 0 0-.464 1.264c.096.415.45.74.848.862.885.118 1.771-.132 2.572-.496 1.523-.731 2.64-2.248 2.872-3.923.07-.496.146-1.073-.197-1.49-.445-.59-1.462-.593-1.885.024"/><path fill="#000" d="M24.714 18.719c1.897-.273 3.86-.31 5.737.133 1.547.398 3.058 1.202 3.988 2.54a7.2 7.2 0 0 1 1.227 2.9c.265 1.573.033 3.306-1.015 4.562q1.428-.002 2.858 0c.426.161.693.646.52 1.087-.106.328-.457.537-.796.515-11.7.005-23.402-.001-35.102.002.178 1.973.89 3.909 2.106 5.48a10.47 10.47 0 0 0 5.46 3.722c.955.235 1.934.406 2.92.395h23.77c2.188-.001 4.383-.662 6.155-1.957 2.472-1.752 4.083-4.623 4.328-7.64-2.122-.004-4.244.005-6.365-.003-.39.01-.757-.314-.81-.696-.08-.405.227-.72.551-.899 2.56-.013 5.12-.007 7.68-.003.28.16.565.41.563.762.019 3.462-1.55 6.897-4.198 9.13a11.9 11.9 0 0 1-7.786 2.887c-.006 1.864.008 3.73-.006 5.593.002.492-.476.883-.959.821-7.4-.003-14.801.006-22.203-.005-.445.02-.838-.38-.837-.82-.011-1.014 0-2.028-.005-3.042-.04-.433.27-.9.722-.94.463-.07.903.348.881.81.007.798-.002 1.596.003 2.393l20.799.001q0-2.404.001-4.808c-7.431-.004-14.862.001-22.294-.003-1.81.004-3.627-.366-5.255-1.166-2.615-1.232-4.744-3.457-5.876-6.117a12.1 12.1 0 0 1-.964-4.734c-.006-.354.281-.6.56-.762 1.174-.008 2.348-.003 3.522-.004a4.87 4.87 0 0 1-.25-4.084c.469-.946 1.041-2.028 2.113-2.38.77-.282 1.664-.072 2.284.444.886.865 1.491 2.032 1.638 3.265.114.953-.159 1.899-.559 2.755h3.71c-.215-.895-.19-1.829-.106-2.738a6.8 6.8 0 0 1 1.994-3.756c.673-.594 1.646-.907 2.53-.662.85.215 1.614.827 1.93 1.658.334.76.252 1.655-.131 2.381-.215.528-.831.84-.838 1.458-.072.7.66 1.043.856 1.648 2.669.026 5.34.004 8.01.01.932-.012 1.866.029 2.798-.023-1.053-.673-2.082-1.456-2.799-2.494-.312-.543.24-1.242.835-1.14.391.056.6.425.846.69a10 10 0 0 0 2.302 1.81c.427.199.876.462 1.366.399.368-.174.17-.693.1-.995-.569-1.275-1.476-2.392-2.544-3.283-.284-.213-.24-.616-.171-.92a.84.84 0 0 1 .801-.434c.33.05.59.28.83.496a10.9 10.9 0 0 1 2.023 2.527c-.03-1.65-.774-3.36-2.193-4.274-1.24-.81-2.744-1.034-4.196-1.094-.777-.027-1.553.039-2.323.132-.083.943-.085 1.89-.058 2.834.02.984.282 1.948.639 2.858.133.341.433.637.384 1.029.023.397-.347.644-.672.772-.794.007-1.02-.85-1.29-1.433-.804-2.18-.888-4.58-.472-6.85.047-.378.347-.701.733-.74m-8.159 4.779c-1.464 1.316-1.96 3.512-1.347 5.361.872-.015 1.743 0 2.615-.009-.591-.812-.69-1.954-.226-2.848.191-.363.503-.64.726-.98.273-.436.224-1.062-.16-1.419-.387-.46-1.164-.5-1.608-.105m-9.729.465c-.975.84-1.515 2.291-1.072 3.544.18.542.507 1.091 1.048 1.333.36.01.79.105 1.081-.169.778-.644 1.045-1.751.871-2.718a4.14 4.14 0 0 0-1.03-1.866c-.22-.247-.615-.274-.898-.123"/><path fill="#000" d="M5.004 32.081c.355-.046.714-.017 1.07-.023 12.407-.001 24.813.003 37.221-.001.346.016.752-.065 1.038.183.383.277.38.946-.004 1.222-.178.168-.441.169-.669.179-12.813-.003-25.625.005-38.438-.004-.41.027-.854-.302-.826-.736-.067-.386.236-.752.608-.82"/></svg>
